packages/core/src/svgs/rbn.svg

<svg width="24" height="24" viewBox="0 0 24 24" fill="none" xmlns="http://www.w3.org/2000/svg">
<g clip-path="url(#clip0_31_16918)">
<path d="M0 0H24V24H0V0Z" fill="#F0F3FA"/>
<path d="M11.9998 18.8574C13.4623 18.8568 14.8863 18.3887 16.0638 17.5214C17.2413 16.6541 18.1107 15.4331 18.5451 14.0366C18.9794 12.6401 18.9558 11.1414 18.4779 9.75924C18 8.37708 17.0926 7.18394 15.8885 6.35405C14.6843 5.52416 13.2463 5.101 11.7845 5.14637C10.3228 5.19174 8.91383 5.70326 7.76343 6.60624C6.61304 7.50921 5.78146 8.75633 5.39016 10.1655C4.99885 11.5746 5.06831 13.0719 5.5884 14.4388L12.1027 8.14307L16.2855 12.1845L12.0427 16.2859L11.4298 15.6945L15.0598 12.1845L12.1027 9.32592L5.96554 15.2574C7.12268 17.4002 9.39411 18.8574 11.9998 18.8574Z" fill="#E73558"/>
</g>
<defs>
<clipPath id="clip0_31_16918">
<rect width="24" height="24" fill="white"/>
</clipPath>
</defs>
</svg>

<svg xmlns="http://www.w3.org/2000/svg" width="24" height="24" fill="none" viewBox="0 0 24 24"><g clip-path="url(#a)"><path fill="#F0F3FA" d="M0 0h24v24H0z"/><path fill="#E73558" d="M12 18.857a6.857 6.857 0 1 0-6.412-4.418l6.515-6.296 4.182 4.041-4.242 4.102-.613-.592 3.63-3.51-2.957-2.858-6.137 5.931a6.86 6.86 0 0 0 6.034 3.6"/></g><defs><clipPath id="a"><path fill="#fff" d="M0 0h24v24H0z"/></clipPath></defs></svg>
